X:1
T:Hor le tue forz' adopra
T:Tiburtio Massaino
T:Hor le tue forz' adopra
C:Tiburtio Massaino
%%score [ 1 2 3 4 ]
L:1/8
Q:1/4=96
M:4/2
K:F
V:1 alto1 nm="Soprano" snm="S"
V:2 alto nm="Alto" snm="A"
V:3 tenor nm="Tenor" snm="T"
V:4 bass nm="Bass" snm="B"
V:1
 z16 |[K:A][K:treble] c8 A3 B c2 A2 | d4 c4 z2 e2 e3 d | c2 e2 d4 c4 z4 | z2 c4 d2 e4 B2 B2 | %5
w: |Hor le tue for- ze a-|do- pra, Hor le tue|for- ze a- do- pra,|Per an- ci- der- mi A-|
 c4 A4 z2 B4 A2 | d4 c3 d e4 e4 | z2 c2 d2 d2 e4 c4 | F2 G2 A6 F2 G4 | A4 z2 c2 d2 e2 c4- | %10
w: mo- re, Per an-|ci- der- mi A- mo- re,|Che nel mo- rir non|sen- ti- ro do- lo-|re, Che nel mo- rir|
 c2 f2 e2 d2 c3 B A4 | G4 z4 z4 e4 | c3 B A2 c2 B4 G2 G2 | A4 E2 E4 C2 F4 | E4 z2 E2 G3 A B2 c2 | %15
w: _ non sen- ti- ro do- lo-|re, Ma|pien di quel- la gio- ia, Ma|pien di quel- la gio-|ia, Ch'a piu fe- li- ci ad'|
 B3 G A2 B2 c4 B4 | z8 z4 A4 | G2 F2 G2 A2 B4 c4 | c6 B2 c2 d2 e4 | z4 c8 B4- | B4 E4 A8- | %21
w: hor, ad' hor com- par- ti,|Vi-|vro, _ _ _ _ Vi-|vro _ _ _ _|ben ch'io|_ mi mo-|
 A4 G4 z8 | z4 c4 A2 B2 c4 | B4 z2 c2 d2 d2 c2 A2 | d4 c2 A2 B3 c d4- | d2 c2 c6 BA B4 | %26
w: * ia,|Poi che son gion-|to a co- si lie- te|par- ti, a co- si lie-|* te par- * * *|
 c4 A8 F4- | F2 G2 A2 G2 F4 G2 c2- | cc B2 A4 G4 A3 A | G2 c2 B4 c4 z2 c2 | B4 c6 B4 A2 | %31
w: ti, Et se|_ da me di- par- ti, L'a-|* ni ma a- vez- z'al suo a- mo-|ro- so ar- do- re, Et|se da me di-|
 d8 c2 A4 F2 | B2 A4 G2 F4 E2 F2- | FG A4 G2 A4 z4 | z4 A4 d8 | c8 z8 | z2 e4 d2 c2 A2 c2 d2 | %37
w: par- ti, L'a- ni|ma a- vez- z'al suo a- mo- ro-|* so ar- do- * re,|In mor-|te|tro- ve- ra vi- ta mag-|
 e4 A2 e2 d2 c4 B2 | c3 d e4 A3 B c4 | z2 d4 c2 B4 A4 | d4 c4 B8 | c16 |] %42
w: gio- re, tro- ve- ra vi-|ta mag- gio- re, _ _|tro- ve- ra vi-|ta mag- gio-|re.|
V:2
 z16 |[K:A][K:treble] z8 z4 A4 | F3 G A2 F2 B4 A4 | z2 c2 A3 B c2 A2 B4 | E2 A4 A2 B4 G2 G2 | %5
w: |Hor|le tue for- ze a- do- pra,|Hor le tue for- ze a- do-|pra, Per an- ci- der- mi A-|
 A3 B c4 B4 z4 | z4 A6 A2 G4 | F2 F2 B8 A4 | z4 E4 F4 E4 | C4 E4 F2 C2 E4 | z16 | z4 A4 A4 G4 | %12
w: mo- * * re,|Per an- ci-|der- mi A- mo- re,|Che nel mo-|rir non sen- ti- ro,||Che nel mo-|
 A2 A,2 C3 D E2 F2 E4 | A,2 C4 B,2 C2 A,4 B,2 | C4 C2 A,2 E3 F E3 C | D2 E2 F2 G2 A4 G3 F | %16
w: rir non sen- ti- ro do- lo-|re, Ma pien di quel- la|gio- ia, Ch'a piu fe- li- ci ad'|hor, ad' hor com- par- ti, ad'|
 G3 A F2 E2 D4 CA,CD | E8 z8 | z4 E4 E6 D2 | C2 B,2 C4 z4 D4- | D4 C2 B,2 A,2 F,2 F4- | F4 ^E4 z8 | %22
w: hor, ad' hor com- par- ti, _ _ _|_|Vi- vro _|_ _ _ ben|_ ch'io _ _ mi mo-|* ia,|
 z8 z4 A4 | F2 G2 A4 F4 z2 F2 | B2 B2 A2 F2 =G4 F4 | z4 F4 F6 G2 | A3 B c4 F4 z2 B2 | %27
w: Poi|che son gion- to a|co- si lie- te par- ti,|a co- si|lie- te par- ti, Et|
 A2 G2 F2 E2 A4 G2 A2- | AA G2 F4 E4 E2 F2 | E2 A2 A2 G2 A4 z2 A2 | G4 G2 A3 G F4 E2 | %31
w: se da me di- par- ti, L'a-|* ni ma a- vez- z'al suo a- mo-|ro- so ar- do- * re, Et|se da me _ _ di-|
 F6 G2 A4 F4 | z4 B6 B2 A4 | B2 c2 d4 c4 B4- | B2 A2 A6 GF G4 | A16 | z4 E4 A8 | %37
w: par- * * ti,|L'a- ni ma a-|vez- z'al suo a- mo- ro-|* so ar- do- * * *|re,|In mor-|
 G2 c4 B2 A2 E2 F3 G | A4 G4 F3 G A4 | F4 G2 A3 G F4 E2 | F3 G A6 GF G4 | A16 |] %42
w: te tro- ve- ra vi- ta mag-|gio- re, tro- ve- ra,|tro- ve- ra _ _ vi-|ta mag- gio- * * *|re.|
V:3
 z16 |[K:A][K:treble-8] z16 | z8 e4 c3 d | e2 c2 f4 e2 a2 f3 g | a2 e2 f4 e8 | z4 e6 e2 f4 | %6
w: ||Hor le tue|for- ze a- do- pra, Hor le tue|for- ze a- do- pra,|Per an- ci-|
 d2 B2 e4 A2 B3 B c2- | c2 A2 F2 B4 E2 z2 c2 | d2 e2 A6 d2 c2 B2 | e3 d c4 B2 A2 A3 G | %10
w: der- mi A- mo- re, Per an- ci-|* der- mi A- mo- re, Che|nel mo- rir non sen- ti-|ro do- lo- re, non sen- ti-|
 F2 F2 B4 A4 z2 e2- | e2 c4 A2 B2 c2 B4 | A8 z2 B4 c2- | c2 A4 G2 G2 AGFEFG | A4 E4 z8 | %15
w: ro do- lo- re, Ma|_ pien di quel- la gio-|ia, Ma pien|_ di quel- la gio- * * * * *|* ia,|
 z8 z2 E2 G3 A | B2 c2 B3 G A2 B2 c4 | B4 z2 e2 e6 d2 | c2 B2 c4 z4 A4- | A4 A8 F4 | =G8 F8 | %21
w: Ch'a piu fe-|li- ci ad' hor, ad' hor com- par-|ti, Vi- vro _|_ _ _ ben|_ ch'io mi|mo- ia,|
 z4 c4 A2 B2 c4 | A4 z2 c2 d2 d2 c2 A2 | d4 c4 z2 B2 A2 c2 | Bcde f2 c2 e4 d4 | z2 f2 c2 c2 d6 B2 | %26
w: Poi che son gion-|to a co- si lie- te|par- ti, a co- si|lie- * * * * te par- ti,|a co- si lie- te|
 f6 e2 d8 | c16- | c16 | z2 e2 e2 e2 e4 z2 A2 | e6 c2 d4 c4 | B8 A4 d4- | d2 c2 e4 B4 c2 d2- | %33
w: par- * *|ti,|_|Et se da me, Et|se da me di-|par- ti, L'a-|* ni ma a- vez- z'al suo a-|
 d2 c2 B4 A4 d4- | d2 c2 c2 BA B8 | A4 z2 c2 f8 | e4 c6 f2 e4 | z2 c2 F2 G2 A4 F4 | z4 c6 B2 A4 | %39
w: * mo- ro- so ar- do-||re, In mor-|te tro- ve- ra|vi- ta mag- gio- re,|tro- ve- ra|
 B4 B2 E2 FGAB c4 | F2 f4 e4 B2 e4 | e16 |] %42
w: vi- ta mag- gio- * * * *|re, vi- ta mag- gio-|re.|
V:4
 z16 |[K:A] z16 | z16 | A,4 F,3 G, A,2 F,2 B,4 | A,8 z8 | z2 A,4 A,2 G,4 F,2 F,2 | %6
w: |||Hor le tue for- ze a- do-|pra,|Per an- ci- der- mi A-|
 B,4 A,4 z2 E,4 E,2 | F,4 D,2 B,,2 E,4 A,,4 | z4 C,4 D,4 E,4 | A,,8 z4 A,4 | %10
w: mo- re, Per an-|ci- der- mi A- mo- re,|Che nel mo-|rir, Che|
 A,4 G,4 A,2 A,,2 C,3 D, | E,4 F,4 E,8 | A,,8 z4 E,4 | F,4 C,2 E,4 F,2 D,4 | A,,8 z8 | %15
w: nel mo- rir non sen- ti-|ro do- lo-|re, Ma|pien di quel- la gio-|ia,|
 z8 z2 A,,2 E,3 F, | E,3 C, D,2 E,2 F,2 G,2 A,4 | E,8 z4 A,4 | A,6 G,2 A,2 B,2 C4 | z4 F,8 B,,4- | %20
w: Ch'a piu fe-|li- * hor, ad' hor com- par-|ti, Vi-|vro _ _ _ _|ben ch'io|
 B,,4 C,4 D,8 | C,8 z4 A,4 | F,2 G,2 A,4 F,4 z2 F,2 | B,2 B,2 A,2 F,2 B,,C,D,E, F,4 | %24
w: _ mi mo-|ia, Poi|che son gion- to a|co- si lie- te par- * * * *|
 B,,4 z2 F,2 E,2 E,2 B,4- | B,4 ^A,4 B,8 | F,8 z4 B,,4 | F,2 ^E,2 F,2 C,2 F,4 E,2 A,2- | %28
w: ti, a co- si lie-|* te par-|ti, Et|se da me di- par- ti, L'a-|
 A,A, E,2 F,4 C,4 A,,3 B,, | C,2 A,,2 E,4 A,,8 | z16 | z16 | z16 | z16 | z16 | z4 A,,4 D,8 | %36
w: * ni ma a- vez- z'al suo a- mo-|ro- so ar- do- re,||||||In mor-|
 C,8 z2 A,4 B,2 | C2 A,4 G,2 F,2 C,2 D,2 D,2 | C,8 F,8 | z2 B,,4 C,2 D,4 C,4 | B,,4 A,,4 E,8 | %41
w: te tro- ve-|ra, tro- ve- ra vi- ta mag-|gio- re,|tro- ve- ra vi-|ta mag- gio-|
 A,,16 |] %42
w: re.|

